static/images/emptyheart.svg

<svg xmlns="http://www.w3.org/2000/svg" width="24" height="24" viewBox="0 0 24 24"><path d="M6.28 3c3.236.001 4.973 3.491 5.72 5.031.75-1.547 2.469-5.021 5.726-5.021 2.058 0 4.274 1.309 4.274 4.182 0 3.442-4.744 7.851-10 13-5.258-5.151-10-9.559-10-13 0-2.676 1.965-4.193 4.28-4.192zm.001-2c-3.183 0-6.281 2.187-6.281 6.192 0 4.661 5.57 9.427 12 15.808 6.43-6.381 12-11.147 12-15.808 0-4.011-3.097-6.182-6.274-6.182-2.204 0-4.446 1.042-5.726 3.238-1.285-2.206-3.522-3.248-5.719-3.248z"/></svg>

<?xml version="1.0" encoding="UTF-8" standalone="no"?>
<svg width="24px" height="23px" viewBox="0 0 24 23" version="1.1" xmlns="http://www.w3.org/2000/svg" xmlns:xlink="http://www.w3.org/1999/xlink">
    <!-- Generator: Sketch 41.2 (35397) - http://www.bohemiancoding.com/sketch -->
    <title>Slice 1</title>
    <desc>Created with Sketch.</desc>
    <defs></defs>
    <g id="Page-1" stroke="none" stroke-width="1" fill="none" fill-rule="evenodd">
        <path d="M6.28,3 C9.516,3.001 11.253,6.491 12,8.031 C12.75,6.484 14.469,3.01 17.726,3.01 C19.784,3.01 22,4.319 22,7.192 C22,10.634 17.256,15.043 12,20.192 C6.742,15.041 2,10.633 2,7.192 C2,4.516 3.965,2.999 6.28,3 Z M6.281,1 C3.098,1 8.8817842e-16,3.187 8.8817842e-16,7.192 C8.8817842e-16,11.853 5.57,16.619 12,23 C18.43,16.619 24,11.853 24,7.192 C24,3.181 20.903,1.01 17.726,1.01 C15.522,1.01 13.28,2.052 12,4.248 C10.715,2.042 8.478,1 6.281,1 L6.281,1 Z" id="Shape" fill="#CA1B1B"></path>
    </g>
</svg>
